!!!OTL: 209. Maifest.
!!!COM: L. v. Beethoven
!!!ARE: Europa, Mitteleuropa, Deutschland
!!!SCT: B0209
!!!TXL: @@DE
!!!YEM: Copyright 1995, estate of Helmut Schaffrath.
**kern	**text
*ICvox	*
*Ivox	*
*clefG2	*
*M2/4	*
*k[b-e-a-]	*
*E-:	*
!LO:TX:a:t=Raſch.	!
{8b-	Wie
=1	=1
4cc	herr-
8b-L	-lich
8ccJ	.
=2	=2
8b-L	leuch-
8a-J	.
8gL	-tet
8a-J	.
=3	=3
8gL	mir
8fJ	.
8e-	die
8g	Na-
=4	=4
(4g	-tur!
8f)}	.
{8f	Wie
=5	=5
4g	glänʒt
4an	die
=6	=6
4b-	Son-
8cc	-ne!
8ee-	Wie
=7	=7
4dd	lacht
4cc	die
=8	=8
4b-	Flur!
8r}	.
{8b-	Es
=9	=9
4b-	drin-
8gL	-gen
8e-J	.
=10	=10
4ee-	Blü-
8cc	-then
8a-	aus
=11	=11
8ccL	je-
8b-J	.
8a-L	-dem
8gJ	.
=12	=12
(4g	Ʒweig
8f)}	.
{8f	und
=13	=13
4f	tau-
8gL	-ſend
8a-J	.
=14	=14
8b-L	Stim-
8ccJ	.
8dd	-men
8ee-	aus
=15	=15
4e-	dem
4f	Ge-
=16	=16
8a-L	-ſträuch,
8gJ	.
8r}	.
{8b-	und
=17	=17
4b-	Freud
8gL	und
8e-J	.
=18	=18
4ee-	Won-
8cc	-ne
8a-	aus
=19	=19
8ccL	je-
8b-J	.
8a-L	-der
8gJ	.
=20	=20
(4g	Bruſt.
8f)}	.
{8f	O
=21	=21
4f	Erd,
8gL	o
8a-J	.
=22	=22
8b-L	Son-
8ccJ	.
8dd	-ne!
8ee-	O
=23	=23
4e-	Glück
8gL	o
8fJ	.
=24	=24
4e-	Luſt!
8r}	.
==	==
!!!AGN: Jahreszeiten - Lied, Fruehling
!!!GTL: Jahreszeitenlieder
!!!ONB: ESAC (Essen Associative Code) Database: BOEHME
!!!AMT: simple duple
!!!AIN: vox
!!!EED: Helmut Schaffrath
!!!EEV: 1.0
!!@@COMMENT:"Gedicht von Goethe 1771, ʒuerſt in Jacobi's Jris. 2. Bd 1. St. Januar S. 15. "May-
!!feſt" überſchrieben, ſpäter "Mailied" betitelt. Beethovens Mel. auch bei Fink, "Hausſchatʒ" Nr. 973."
!!@@END:
!!!Text: J. W. Goethe
!!!URL-scan: https://archive.org/details/BoehmeVtLieder1895/page/n193/mode/2up
!!!ENC: Anna Maria Matuszewska
!!!EEV: 2024/24/06
*-	*-
